src/landing/containers/MainScreen/components/Advantages/assets/support.svg

<svg width="120" height="120" viewBox="0 0 120 120" fill="none" xmlns="http://www.w3.org/2000/svg">
    <path fill-rule="evenodd" clip-rule="evenodd" d="M76 58C66.0589 58 58 66.0589 58 76C58 85.9411 66.0589 94 76 94C78.2814 94 80.4593 93.5765 82.4624 92.8057C82.9332 92.6245 83.4551 92.628 83.9235 92.8153L91.111 95.6903L89.4908 89.2093C89.3368 88.5932 89.4844 87.9406 89.8887 87.4509C92.4581 84.3385 94 80.352 94 76C94 66.0589 85.9411 58 76 58ZM54 76C54 63.8497 63.8497 54 76 54C88.1503 54 98 63.8497 98 76C98 80.9461 96.3656 85.515 93.609 89.1899L95.9403 98.5149C96.1224 99.2436 95.881 100.013 95.3152 100.507C94.7494 101.001 93.9546 101.136 93.2572 100.857L83.1465 96.8127C80.9035 97.5827 78.4986 98 76 98C63.8497 98 54 88.1503 54 76Z" fill="url(#paint0_linear)"/>
    <path fill-rule="evenodd" clip-rule="evenodd" d="M22 52C22 35.4315 35.4315 22 52 22C68.5685 22 82 35.4315 82 52C82 68.5685 68.5685 82 52 82C46.7808 82 41.8679 80.6656 37.5895 78.3183L28.7428 81.857C28.0454 82.1359 27.2506 82.0006 26.6848 81.5067C26.119 81.0128 25.8776 80.2436 26.0597 79.5149L28.33 70.4338C24.3641 65.3482 22 58.9478 22 52Z" fill="url(#paint1_linear)"/>
    <path d="M50.8721 55.9361C50.3073 55.9361 49.8388 55.486 49.9176 54.9391C50.0351 54.1236 50.3044 53.4208 50.7255 52.8306C51.3349 52.012 52.211 51.1093 53.3537 50.1222C54.1916 49.4 54.8011 48.7981 55.182 48.3167C55.5883 47.8111 55.7914 47.2454 55.7914 46.6194C55.7914 45.7287 55.4105 45.0306 54.6487 44.525C53.9123 43.9954 52.922 43.7306 51.6777 43.7306C50.4843 43.7306 49.4178 43.9713 48.4782 44.4528C47.8275 44.7784 47.2476 45.2015 46.7384 45.7222C46.3802 46.0886 45.8153 46.2139 45.3647 45.9633L42.5068 44.3734C41.9886 44.0852 41.8281 43.4227 42.2122 42.9769C43.1863 41.8464 44.3989 40.9421 45.85 40.2639C47.6783 39.4213 49.8367 39 52.3253 39C55.2455 39 57.5816 39.5898 59.3337 40.7694C61.1112 41.9491 62 43.5861 62 45.6806C62 46.6676 61.8222 47.5343 61.4667 48.2806C61.1366 49.0269 60.7177 49.6648 60.2098 50.1944C59.7273 50.7 59.0925 51.2898 58.3053 51.9639C57.3658 52.7583 56.6802 53.4324 56.2485 53.9861C56.0156 54.2719 55.8455 54.5927 55.7382 54.9486C55.5786 55.4783 55.1431 55.9361 54.5783 55.9361H50.8721ZM52.7442 65C51.7031 65 50.8271 64.687 50.1161 64.0611C49.4305 63.4111 49.0877 62.6287 49.0877 61.7139C49.0877 60.7991 49.4305 60.0407 50.1161 59.4389C50.8017 58.813 51.6777 58.5 52.7442 58.5C53.8108 58.5 54.6868 58.813 55.3724 59.4389C56.058 60.0407 56.4008 60.7991 56.4008 61.7139C56.4008 62.6287 56.0453 63.4111 55.3343 64.0611C54.6487 64.687 53.7854 65 52.7442 65Z" fill="white"/>
    <defs>
        <linearGradient id="paint0_linear" x1="98" y1="54" x2="98" y2="101" gradientUnits="userSpaceOnUse">
            <stop stop-color="#FFA526"/>
            <stop offset="1" stop-color="#FF860D"/>
        </linearGradient>
        <linearGradient id="paint1_linear" x1="82" y1="22" x2="82" y2="82" gradientUnits="userSpaceOnUse">
            <stop stop-color="#4070FF"/>
            <stop offset="1" stop-color="#365FD9"/>
        </linearGradient>
    </defs>
</svg>

<svg width="120" height="120" fill="none" xmlns="http://www.w3.org/2000/svg"><path fill-rule="evenodd" clip-rule="evenodd" d="M76 58c-9.941 0-18 8.059-18 18s8.059 18 18 18c2.281 0 4.46-.424 6.462-1.194a2 2 0 011.462.01l7.187 2.874-1.62-6.48a2 2 0 01.398-1.76A17.918 17.918 0 0094 76c0-9.941-8.059-18-18-18zM54 76c0-12.15 9.85-22 22-22s22 9.85 22 22a21.91 21.91 0 01-4.391 13.19l2.331 9.325a2 2 0 01-2.683 2.342l-10.11-4.044A21.974 21.974 0 0176 98c-12.15 0-22-9.85-22-22z" fill="url(#paint0_linear)"/><path fill-rule="evenodd" clip-rule="evenodd" d="M22 52c0-16.569 13.431-30 30-30 16.569 0 30 13.431 30 30 0 16.569-13.431 30-30 30a29.874 29.874 0 01-14.41-3.682l-8.847 3.539a2 2 0 01-2.683-2.342l2.27-9.081A29.879 29.879 0 0122 52z" fill="url(#paint1_linear)"/><path d="M50.872 55.936c-.565 0-1.033-.45-.954-.997.117-.815.386-1.518.807-2.108.61-.819 1.486-1.722 2.629-2.709.838-.722 1.447-1.324 1.828-1.805.406-.506.61-1.072.61-1.698 0-.89-.382-1.588-1.143-2.094-.737-.53-1.727-.794-2.971-.794-1.194 0-2.26.24-3.2.722a6.46 6.46 0 00-1.74 1.27c-.358.366-.923.49-1.373.24l-2.858-1.59c-.518-.288-.679-.95-.295-1.396.974-1.13 2.187-2.035 3.638-2.713C47.678 39.42 49.837 39 52.325 39c2.92 0 5.257.59 7.009 1.77C61.11 41.95 62 43.585 62 45.68c0 .988-.178 1.854-.533 2.6a6.576 6.576 0 01-1.257 1.914 26.593 26.593 0 01-1.905 1.77c-.94.794-1.625 1.468-2.056 2.022a2.778 2.778 0 00-.51.963c-.16.53-.596.987-1.16.987h-3.707zM52.744 65c-1.04 0-1.917-.313-2.628-.939-.685-.65-1.028-1.432-1.028-2.347s.343-1.673 1.028-2.275c.686-.626 1.562-.939 2.628-.939 1.067 0 1.943.313 2.628.939.686.602 1.029 1.36 1.029 2.275 0 .915-.356 1.697-1.067 2.347-.685.626-1.549.939-2.59.939z" fill="#fff"/><defs><linearGradient id="paint0_linear" x1="54" y1="54" x2="100.898" y2="97.904" gradientUnits="userSpaceOnUse"><stop stop-color="#FFBE41"/><stop offset="1" stop-color="#FF9141"/></linearGradient><linearGradient id="paint1_linear" x1="22" y1="22" x2="82" y2="82" gradientUnits="userSpaceOnUse"><stop stop-color="#78A0FF"/><stop offset="1" stop-color="#5078E6"/></linearGradient></defs></svg>
